packages/core/src/svgs/tokens/branded/DGB.svg

<svg width="24" height="24" viewBox="0 0 24 24" fill="none" xmlns="http://www.w3.org/2000/svg">
<path d="M7.4348 21.9994L8.00848 20.4433L7.07922 20.5308L6.6699 21.5732C6.58053 21.7756 6.49304 21.9888 6.23245 21.9888L4.10022 22L4.54392 20.7495H2.18733C2.19796 20.5964 6.70739 9.21537 6.88237 8.87601H10.7206C11.0706 8.90852 11.2674 9.17906 11.1581 9.52902L10.6225 10.907L8.30407 17.1075C11.5181 17.1075 14.5583 15.2221 15.9375 12.3068C16.978 10.3415 17.2623 7.00125 14.1983 7.00125H2.15796L3.74339 4.35658C3.81435 4.2153 3.92397 4.09707 4.05949 4.01565C4.19501 3.93422 4.35086 3.89296 4.50892 3.89665H10.9175L11.6406 2H13.7403C13.8715 2.02187 13.959 2.13123 13.9377 2.27372L13.8828 2.4487L13.4109 3.6998L13.3453 3.88602H14.2202L14.2858 3.74354L14.9001 2.15311C14.9545 2 14.9545 2 15.097 2H16.9555C17.2074 2 17.3055 2.14249 17.2074 2.3937L16.703 3.75478L16.6261 3.94039L16.7905 3.97351C17.6435 4.08287 18.4853 4.26909 19.2727 4.62967C19.8745 4.90338 20.4213 5.25334 20.8694 5.7564C21.4818 6.43444 21.788 7.23247 21.8317 8.14048C21.8867 9.01537 21.7224 9.86775 21.4274 10.6882C20.7773 12.6206 19.7221 14.3918 18.3322 15.8832C16.2912 17.9924 13.584 19.2454 10.7644 19.9402C10.6331 19.9733 10.5675 20.0277 10.5238 20.1589L9.97201 21.6388C9.86265 21.9125 9.75329 21.9994 9.48018 21.9994H7.4348Z" fill="#006AD2"/>
</svg>

<svg xmlns="http://www.w3.org/2000/svg" width="24" height="24" fill="none" viewBox="0 0 24 24">
    <path fill="#006AD2" d="m7.435 22 .573-1.557-.929.088-.41 1.042c-.088.203-.176.416-.437.416L4.1 22l.444-1.25H2.187c.011-.154 4.52-11.535 4.695-11.874h3.839c.35.033.546.303.437.653l-.535 1.378-2.319 6.2c3.214 0 6.254-1.885 7.634-4.8C16.978 10.34 17.262 7 14.198 7H2.158l1.585-2.644a.84.84 0 0 1 .766-.46h6.409L11.64 2h2.1a.23.23 0 0 1 .197.274l-.055.175-.472 1.25-.066.187h.875l.066-.142.614-1.59C14.954 2 14.954 2 15.097 2h1.859c.251 0 .35.142.251.394l-.504 1.36-.077.186.165.034c.852.109 1.694.295 2.482.656.602.273 1.148.623 1.596 1.126.613.678.919 1.476.963 2.384.055.875-.11 1.728-.405 2.548a14.3 14.3 0 0 1-3.095 5.195c-2.04 2.11-4.748 3.362-7.568 4.057-.13.033-.196.088-.24.219l-.552 1.48c-.11.274-.219.36-.492.36z"/>
</svg>
